svgs/regular/steak.svg

<svg xmlns="http://www.w3.org/2000/svg" viewBox="0 0 576 512"><!-- Font Awesome Pro 6.0.0-alpha2 by @fontawesome - https://fontawesome.com License - https://fontawesome.com/license (Commercial License) --><path d="M368.883 96C341.508 96 317.008 119.75 306.258 156.375C300.008 177.75 279.508 262.625 133.133 326.375C51.008 362.125 123.383 414.875 228.883 414.875C301.633 414.875 390.133 389.75 454.383 316.625C492.508 273.125 487.133 190.625 442.758 140C417.883 111.625 391.633 96 368.883 96ZM384.008 255.875C366.383 255.875 352.008 241.625 352.008 223.875C352.008 206.25 366.383 191.875 384.008 191.875S416.008 206.25 416.008 223.875C416.008 241.625 401.633 255.875 384.008 255.875ZM514.884 76.625C467.883 23.125 416.258 0 368.883 0C298.258 0 237.008 51.125 214.133 129.375C165.008 269.375 1.382 212.375 0.007 351.625C-1.118 467.5 126.383 512 239.258 512C244.883 512 250.508 511.875 256.008 511.625C343.758 508.25 443.383 474.625 526.509 379.875C596.759 299.75 591.634 164 514.884 76.625ZM490.383 348.125C410.508 439.125 317.883 461.25 254.133 463.75C249.258 463.875 244.258 464 239.258 464C167.633 464 103.508 444.25 71.883 412.375C55.633 395.875 47.758 376.125 48.008 352.125C48.383 312.625 63.008 304.5 113.883 282.25C162.383 261.125 228.883 232.25 259.383 145.25L259.758 144.125L260.133 142.875C277.008 85.25 319.758 48 368.883 48C406.133 48 444.258 68.875 478.883 108.375C539.009 176.875 544.384 286.75 490.383 348.125Z"/></svg>

<svg xmlns="http://www.w3.org/2000/svg" viewBox="0 0 576 512"><!--! Font Awesome Pro 6.0.0-alpha3 by @fontawesome - https://fontawesome.com License - https://fontawesome.com/license (Commercial License) --><path d="M368.9 96c-27.38 0-51.88 23.71-62.63 60.33c-6.25 21.38-26.75 106.2-173.1 169.1c-82.13 35.75-9.75 88.54 95.75 88.54c72.75 0 161.3-25.21 225.5-98.33c38.13-43.5 32.75-125.9-11.62-176.5C417.9 111.6 391.6 96 368.9 96zM384 255.9c-17.63 0-32-14.25-32-32c0-17.63 14.38-32 32-32s32 14.38 32 32C416 241.6 401.6 255.9 384 255.9zM514.9 76.63C467.9 23.13 416.3 0 368.9 0c-70.63 0-131.9 51.13-154.8 129.4c-49.13 140-212.8 83.01-214.1 222.3C-1.117 467.5 126.3 512 239.2 512c5.625 0 11.3-.1085 16.8-.3585c87.75-3.375 187.4-37.08 270.5-131.8C596.8 299.7 591.6 164 514.9 76.63zM490.4 348.1c-79.88 91-172.5 113.1-236.3 115.6C249.3 463.9 244.3 464 239.3 464c-71.63 0-135.8-19.75-167.4-51.63c-16.25-16.5-24.13-36.25-23.88-60.25c.375-39.5 15-47.63 65.88-69.88C162.4 261.1 228.9 232.2 259.4 145.2l.375-1.125l.375-1.25C277 85.25 319.8 48 368.9 48c37.25 0 75.38 20.88 110 60.38C539 176.9 544.4 286.8 490.4 348.1z"/></svg>
